build/img/landings/smm-strategy/move.svg

<svg width="1051" height="405" fill="none" xmlns="http://www.w3.org/2000/svg"><path d="M525.219 858.362V577.254c0-20.007 16.22-36.226 36.227-36.226h447.764c20.01 0 36.23-16.219 36.23-36.226V369.167c0-20.008-16.22-36.227-36.23-36.227H41.226C21.22 332.94 5 316.721 5 296.714V161.079c0-20.007 16.22-36.227 36.226-36.227H452.39" stroke="#7B61FF" stroke-width="10"/><path d="M441.982 124.853H233.895" stroke="url(#paint0_linear)" stroke-width="10"/><path d="M617.601 131.213c5.034-2.746 5.034-9.975 0-12.721L415.094 8.034c-5.575-3.041-12.087 2.052-10.478 8.196l27.968 106.787a7.248 7.248 0 010 3.671l-27.968 106.787c-1.609 6.143 4.903 11.237 10.478 8.196l202.507-110.458z" fill="#7B61FF"/><defs><linearGradient id="paint0_linear" x1="233.895" y1="124.853" x2="441.982" y2="124.853" gradientUnits="userSpaceOnUse"><stop stop-color="#7B61FF"/><stop offset="1" stop-color="#fff"/></linearGradient></defs></svg>

<svg width="1051" height="405" viewBox="0 0 1051 405" fill="none" xmlns="http://www.w3.org/2000/svg">
<path d="M525.219 858.362V577.254C525.219 557.247 541.439 541.028 561.446 541.028H1009.21C1029.22 541.028 1045.44 524.809 1045.44 504.802V369.167C1045.44 349.159 1029.22 332.94 1009.21 332.94H41.2264C21.2191 332.94 5 316.721 5 296.714L5 161.079C5 141.072 21.2191 124.852 41.2264 124.852H452.389" stroke="#7B61FF" stroke-width="10"/>
<path d="M441.982 124.853L233.895 124.853" stroke="url(#paint0_linear)" stroke-width="10"/>
<path d="M617.601 131.213C622.635 128.467 622.635 121.238 617.601 118.492L415.094 8.03381C409.519 4.99266 403.007 10.0864 404.616 16.2301L432.584 123.017C432.899 124.22 432.899 125.485 432.584 126.688L404.616 233.475C403.007 239.618 409.519 244.712 415.094 241.671L617.601 131.213Z" fill="#7B61FF"/>
<defs>
<linearGradient id="paint0_linear" x1="233.895" y1="124.853" x2="441.982" y2="124.853" gradientUnits="userSpaceOnUse">
<stop stop-color="#7B61FF"/>
<stop offset="1" stop-color="white"/>
</linearGradient>
</defs>
</svg>
